X: 2512
T: Ballydesmond, The
R: polka
M: 2/4
K: Adorian
|:E>A AB|cd e/f/g|G>F GA|GE F/E/D|
E>A AB|B/c/d e>f|g/f/e dB|A2 A2:|
|:a>g ab|ag ef|gf ga|ge f/e/d|
e<a ab|ag ef|g/f/e dB|A2 A2:|

